X: 18700
T: I'm The Boy For Bewitching Them
R: slip jig
M: 9/8
K: Gmajor
|:G3 Gge dBG|ABA ABd efg|G3 Gge dBG|ABc BAG E3:|
|:gdg gag fed|edB gab a2b|gab abg fed|efg dBG A3:|

